X:156
T:The Apocalypse Reel
R:reel
C:2012 L.E. McCullough 
M:4/4
L:1/8
K:Eminor
Bd||: ~e3f ~g3e | fedf e~B3 | ~G3B AGFG | AGFG E2Bd | 
~e3f ~g3e | fdfa gfed | e~B3 eBeg |1 fedB e2Bd :|2 fedB e2EF ||:
~G3B dege| f~B3 ABdB | GBdf gfeg | fBag e3f | 
edBA GBFG | ADFA dfgf | e~B3 EBeB |1  AdFD E2EF:||2  AdFD E2Bd ||

